X:1044
T:Brunnsbergs Polska
S:Älvdalen
S:Efter Per Winther
Z:[[http://www.bluerose.karenlmyers.org/IncipitsPolskaAlvdalen1.html|Karen Myers (#1044)]]
M:3/4
L:1/8
R:Polska
O:Älvdalen, Dalarna
K:Dm
A2 (f>e) d(^c/d/) | e>(e g>)(g a>)a | b>(b g/a/)g/e/ f>f | a2 (f/a/)f/d/ e>^c | A2 (f>e) f>e |
[1 (d^c) A4 :|2 (d^c) d4 |: A2 (f>e) f>e | (d^c) A2 [EA][EA] | [F2A2][EA][DA]^C>E |
(DE) (FG) A2- | A2 (f>e) f>e | (d^c) A2 [EA][EA] | [F2A2][EA][DA]^C>E | D2 D4 :|
